!!!!SEGMENT: pl-kozmzk--mzk-m-159--007_walczynski-franciszek--praeludia-organi-op-5-adagio.krn
!!!cenid: 18xx:2750
!!!COM: Walczyński, Franciszek
!!!COM-rism: pe30021989
!!!CDT: ~1852-1937
!!!CNT: Polish
!!!OTL: Praeludia organi op. 5 – Adagio
!!!PDT: 1894
!!!AGN: Secular; Prelude
!!!SMS-siglum: PL-KOZmzk
!!!SMS-shelfmark: mzk/m/159
!!!NIFC-rismID: 1001116621
!!!URL-scan: https://repozytorium.nifc.pl/islandora/object/pl-kozmzk%3A2265/datastream/PDF/view
!!!ONB-nifc: UWAGA: numeracja plików zgodna z numeracją źrodłową
!!!SMS-variant:
!!!SMS-altvar:
!!!OMD:7. Adagio
**kern	**kern	**dynam
*part2	*part1	*part1
*staff2	*staff1	*
*clefF4	*clefG2	*
*k[f#c#g#]	*k[f#c#g#]	*
*M4/4	*M4/4	*
*met(c)	*met(c)	*
=1	=1	=1
*^	*^	*
*	*	*clefF4	*	*
(4E/	[1AA\	(4c#/	[1A\	p
8D#X/L	.	8B#X/L	.	.
8E/J	.	8c#/J	.	.
2F#/	.	4e/	.	.
.	.	4d/	.	.
=2	=2	=2	=2	=2
4E/	2.AA\]	4.c#/	4A\]	.
4D/	.	.	4G#\	.
.	.	8Bn/	.	.
4C#/)	.	4A\)	4ryy	.
(8E/L	4r	4r	4ryy	p
8A/J)	.	.	.	.
*	*	*clefG2	*	*
=3	=3	=3	=3	=3
(4c#/	2r	8r	8ryy	.
!	!	!	!	!LO:DY:a
.	.	8e/	(8e\L	p
8B/L	.	2e/	8d\	.
8A/J	.	.	8c#\J	.
!	!	!	!	!LO:HP:a
4G#/)	4r	.	4B\)	>
(8F#/L	4BB\	4d#X/	[4B\	.
[8A/J	.	.	.	]]
=4	=4	=4	=4	=4
!LO:SIC:v:n=2:s=1EE;	!	!	!	!
4A/]	1FF#;	1e/;	1B\]	.
8G#/L	.	.	.	.
8F#/J	.	.	.	.
2G#;/)	.	.	.	.
=5	=5	=5	=5	=5
!	!	!	!	!LO:DY:rj
(4e/	(1A\	(4cc#/	[1a\	pp
8d#X/L	.	8b#X/L	.	.
8e/J	.	8cc#/J	.	.
4.f#/	.	4ee/	.	.
.	.	4dd/	.	.
8fn/	.	.	.	.
=6	=6	=6	=6	=6
4e/	4.E\	4.cc#/	4a\]	.
4dn/	.	.	4g#\	.
.	8E#X\	8b/	.	.
4c#/	2F#\)	2a/)	2f#\	.
8B#X/L	.	.	.	.
8c#/J)	.	.	.	.
=7	=7	=7	=7	=7
!	!	!LO:TX:t=P:problem:pf się nie wyświetla	!	!LO:DY:a
!	!	!	!	!LO:HP:a
(4d/	(1D\	(2b/	(1f#\	pf <
4Bn/	.	.	.	.
4A/	.	2b#X/	.	.
8G#X/L	.	.	.	[
8F#/J	.	.	.	.
=8	=8	=8	=8	=8
!	!	!	!	!LO:HP:a
1G#/)	2C#\	2cc#/	2e#X\	>
.	2BB;\)	2ddn;/)	2en\)	]
!!LO:LB:g=original
=9	=9	=9	=9	=9
2r	4AA\	8r	8ryy	.
.	.	(8cc#/L	(8a\L	f
.	4r	8b/	8g#\	.
.	.	8cc#/J	8a\J	.
8r	2rGG	[2dd/)	2b\)	.
(8E/L	.	.	.	p
8F#/	.	.	.	.
8G#/J	.	.	.	.
=10	=10	=10	=10	=10
4A/	1r	(8dd/L]	8b\	<
.	.	8cc#/	[4.a\	.
8B/L	.	8dd/	.	.
8c#/J	.	8ee/J	.	.
8d/L	.	8ff#/L	4.a\]	.
8c#/	.	8ee/	.	.
8B/	.	8dd#X/	.	.
8d#X/J)	.	8aa/J)	8b\	[[
=11	=11	=11	=11	=11
(8e/L	1r	(4gg#/	4.ee\	.
8dn/	.	.	.	.
8c#/	.	8aa/L	.	.
8d/J	.	8ff#/J	8ddn\	.
4.e/	.	4ee/	4cc#\	.
.	.	4dd/)	4b\	.
8e#X/)	.	.	.	.
=12	=12	=12	=12	=12
*	*	*	*	*^
(8f#/L	2r	(2cc#/	2a#X\	.	.
8gn/	.	.	.	.	.
8f#/	.	.	.	.	.
8e/J	.	.	.	.	.
!LO:TX:b:i:t=Ped.	!	!	!	!	!
8d/L	4r	8b/L	8f#\L	.	.
8A#X/	.	8cc#/	8gn\J	.	.
!	!	!	!	!	!LO:DY:b=2
8B/	4D\	8dd/	4f#\	p	p
8d/J	.	8b/J	.	.	.
*	*	*	*	*v	*v
=13	=13	=13	=13	=13
4c#/	2E\	4an/	4.e\	.
4B/	.	4g#/	.	.
.	.	.	8d\	.
2A/)	[2AA\	2a/	[2c#\	.
=14	=14	=14	=14	=14
(2Gn/	1AA\_	(4a/)	2c#\]	.
!	!	!LO:TX:b:i:t=rit.	!	!
.	.	8b/L	.	.
.	.	8a/J	.	.
!	!	!	!	!LO:HP:b=2
2F#/	.	4a/	[2d\	>
.	.	8b/L	.	.
.	.	8a/J	.	.
=15	=15	=15	=15	=15
2Fn/	1AA\;]	8a/L	2d\]	.
.	.	8g#/	.	.
.	.	8a/	.	.
.	.	8b/J	.	.
!	!	!	!	!
2E;/)	.	2cc#;/)	2c#\	]] pp
*v	*v	*	*	*
*	*v	*v	*
==	==	==
*-	*-	*-
!!!system-decoration: {(s1,s2)}
!!!EED: Andrzej Borzym
!!!EST: 2021-08-08
!!!ENC: Krzysztof Stępień
!!!END: 2021-07-26
